source/media/google-play-badge.svg

<svg id="36d1c731-62c3-4d06-aec3-8a50366da749" data-name="Layer 1" xmlns="http://www.w3.org/2000/svg" xmlns:xlink="http://www.w3.org/1999/xlink" viewBox="0 0 135 40.5"><defs><linearGradient id="1c2036b0-0194-48ac-9611-e992979cdead" x1="21.77" y1="33.32" x2="4.99" y2="16.54" gradientTransform="matrix(1, 0, 0, -1, 0, 42)" gradientUnits="userSpaceOnUse"><stop offset="0" stop-color="#00a0ff"/><stop offset="0.01" stop-color="#00a1ff"/><stop offset="0.26" stop-color="#00beff"/><stop offset="0.51" stop-color="#00d2ff"/><stop offset="0.76" stop-color="#00dfff"/><stop offset="1" stop-color="#00e3ff"/></linearGradient><linearGradient id="3d8369f9-81c5-4c93-abb2-76562b70b465" x1="33.83" y1="21.95" x2="9.64" y2="21.95" gradientTransform="matrix(1, 0, 0, -1, 0, 42)" gradientUnits="userSpaceOnUse"><stop offset="0" stop-color="#ffe000"/><stop offset="0.41" stop-color="#ffbd00"/><stop offset="0.78" stop-color="orange"/><stop offset="1" stop-color="#ff9c00"/></linearGradient><linearGradient id="2bc3370c-a055-45d5-a040-01ec11e1dd74" x1="24.82" y1="19.72" x2="2.06" y2="-3.04" gradientTransform="matrix(1, 0, 0, -1, 0, 42)" gradientUnits="userSpaceOnUse"><stop offset="0" stop-color="#ff3a44"/><stop offset="1" stop-color="#c31162"/></linearGradient><linearGradient id="181f6d35-e9eb-4e8b-a292-65d058924ec4" x1="7.26" y1="41.79" x2="17.42" y2="31.63" gradientTransform="matrix(1, 0, 0, -1, 0, 42)" gradientUnits="userSpaceOnUse"><stop offset="0" stop-color="#32a071"/><stop offset="0.07" stop-color="#2da771"/><stop offset="0.48" stop-color="#15cf74"/><stop offset="0.8" stop-color="#06e775"/><stop offset="1" stop-color="#00f076"/></linearGradient></defs><title>google-play-badge2</title><path d="M130,40H5a5,5,0,0,1-5-5V5A5,5,0,0,1,5,0H130a5,5,0,0,1,5,5V35A5,5,0,0,1,130,40Z"/><path d="M130,.8A4.23,4.23,0,0,1,134.2,5V35a4.23,4.23,0,0,1-4.2,4.2H5A4.23,4.23,0,0,1,.8,35V5A4.23,4.23,0,0,1,5,.8Zm0-.8H5A5,5,0,0,0,0,5V35a5,5,0,0,0,5,5H130a5,5,0,0,0,5-5V5A5,5,0,0,0,130,0Z" fill="#a6a6a6"/><path d="M47.4,10.2a2.72,2.72,0,0,1-.7,2A3.1,3.1,0,0,1,41.4,10a3.07,3.07,0,0,1,3.1-3.1,2.66,2.66,0,0,1,1.2.3,2.18,2.18,0,0,1,.9.7l-.5.5a1.86,1.86,0,0,0-1.6-.7,2,2,0,0,0-1.6.7,2.06,2.06,0,0,0-.7,1.7,2.06,2.06,0,0,0,.7,1.7,2.57,2.57,0,0,0,1.6.7,2.19,2.19,0,0,0,1.7-.7,1.66,1.66,0,0,0,.5-1.2H44.5V9.9h2.9Z" fill="#fff" stroke="#fff" stroke-miterlimit="10" stroke-width="0.2"/><path d="M52,7.7H49.3V9.6h2.5v.7H49.3v1.9H52V13H48.5V7H52Z" fill="#fff" stroke="#fff" stroke-miterlimit="10" stroke-width="0.2"/><path d="M55.3,13h-.8V7.7H52.8V7H57v.7H55.3Z" fill="#fff" stroke="#fff" stroke-miterlimit="10" stroke-width="0.2"/><path d="M59.9,13V7h.8v6Z" fill="#fff" stroke="#fff" stroke-miterlimit="10" stroke-width="0.2"/><path d="M64.1,13h-.8V7.7H61.6V7h4.1v.7H64Z" fill="#fff" stroke="#fff" stroke-miterlimit="10" stroke-width="0.2"/><path d="M73.6,12.2A3.1,3.1,0,0,1,68.3,10a3.1,3.1,0,1,1,6.2,0A2.94,2.94,0,0,1,73.6,12.2Zm-3.8-.5a2.36,2.36,0,0,0,1.6.7,2,2,0,0,0,1.6-.7,2.41,2.41,0,0,0,.7-1.7A2.06,2.06,0,0,0,73,8.3a2.36,2.36,0,0,0-1.6-.7,2,2,0,0,0-1.6.7,2.41,2.41,0,0,0-.7,1.7A2.06,2.06,0,0,0,69.8,11.7Z" fill="#fff" stroke="#fff" stroke-miterlimit="10" stroke-width="0.2"/><path d="M75.6,13V7h.9l2.9,4.7V7h.8v6h-.8L76.3,8.1V13Z" fill="#fff" stroke="#fff" stroke-miterlimit="10" stroke-width="0.2"/><path d="M68.1,21.8a4.21,4.21,0,0,0-4.3,4.3,4.27,4.27,0,0,0,4.3,4.3,4.21,4.21,0,0,0,4.3-4.3A4.15,4.15,0,0,0,68.1,21.8Zm0,6.8a2.61,2.61,0,0,1,0-5.2A2.42,2.42,0,0,1,70.5,26,2.48,2.48,0,0,1,68.1,28.6Zm-9.3-6.8a4.21,4.21,0,0,0-4.3,4.3,4.27,4.27,0,0,0,4.3,4.3,4.21,4.21,0,0,0,4.3-4.3A4.15,4.15,0,0,0,58.8,21.8Zm0,6.8a2.61,2.61,0,0,1,0-5.2A2.42,2.42,0,0,1,61.2,26,2.48,2.48,0,0,1,58.8,28.6ZM47.7,23.1v1.8H52a3.78,3.78,0,0,1-1,2.3,4.43,4.43,0,0,1-3.3,1.3A4.66,4.66,0,0,1,43,23.7a4.72,4.72,0,0,1,4.7-4.8A5,5,0,0,1,51,20.2l1.3-1.3a6.41,6.41,0,0,0-4.5-1.8,6.75,6.75,0,0,0-6.7,6.6,6.75,6.75,0,0,0,6.7,6.6,5.75,5.75,0,0,0,4.6-1.9A6,6,0,0,0,54,24.2a3.75,3.75,0,0,0-.1-1.1Zm45.4,1.4a3.89,3.89,0,0,0-3.6-2.7,4,4,0,0,0-4,4.3,4.18,4.18,0,0,0,4.2,4.3,4.1,4.1,0,0,0,3.5-1.9l-1.4-1a2.44,2.44,0,0,1-2.1,1.2,2.17,2.17,0,0,1-2.1-1.3L93.3,25Zm-5.8,1.4a2.43,2.43,0,0,1,2.2-2.5,1.77,1.77,0,0,1,1.6.9ZM82.6,30h1.9V17.5H82.6Zm-3-7.3a3.29,3.29,0,0,0-2.3-1A4.3,4.3,0,0,0,73.2,26a4.14,4.14,0,0,0,4.1,4.2,2.87,2.87,0,0,0,2.2-1h.1v.6a2.27,2.27,0,0,1-4.4,1l-1.6.7A4.13,4.13,0,0,0,77.4,34c2.2,0,4-1.3,4-4.4V22H79.6Zm-2.2,5.9a2.61,2.61,0,0,1,0-5.2A2.41,2.41,0,0,1,79.7,26,2.41,2.41,0,0,1,77.4,28.6Zm24.4-11.1H97.3V30h1.9V25.3h2.6a3.9,3.9,0,1,0,0-7.8Zm.1,6H99.2V19.2h2.7a2.2,2.2,0,0,1,2.2,2.1A2.29,2.29,0,0,1,101.9,23.5Zm11.5-1.8a3.36,3.36,0,0,0-3.3,1.9l1.7.7a1.77,1.77,0,0,1,1.7-.9,1.88,1.88,0,0,1,2,1.6v.1a4,4,0,0,0-1.9-.5c-1.8,0-3.6,1-3.6,2.8a2.93,2.93,0,0,0,3.1,2.8,2.81,2.81,0,0,0,2.4-1.2h.1v1h1.8V25.2A3.78,3.78,0,0,0,113.4,21.7Zm-.2,6.9c-.6,0-1.5-.3-1.5-1.1,0-1,1.1-1.3,2-1.3a3.87,3.87,0,0,1,1.7.4A2.33,2.33,0,0,1,113.2,28.6ZM123.7,22l-2.1,5.4h-.1L119.3,22h-2l3.3,7.6-1.9,4.2h1.9L125.7,22Zm-16.8,8h1.9V17.5h-1.9Z" fill="#fff"/><path d="M10.4,7.5a2,2,0,0,0-.5,1.4V31a2,2,0,0,0,.5,1.4l.1.1L22.9,20.1v-.2Z" fill="url(#1c2036b0-0194-48ac-9611-e992979cdead)"/><path d="M27,24.3l-4.1-4.1v-.3L27,15.8l.1.1L32,18.7c1.4.8,1.4,2.1,0,2.9Z" fill="url(#3d8369f9-81c5-4c93-abb2-76562b70b465)"/><path d="M27.1,24.2,22.9,20,10.4,32.5c.5.5,1.2.5,2.1.1Z" fill="url(#2bc3370c-a055-45d5-a040-01ec11e1dd74)"/><path d="M27.1,15.8,12.5,7.5a1.62,1.62,0,0,0-2.1.1L22.9,20Z" fill="url(#181f6d35-e9eb-4e8b-a292-65d058924ec4)"/><path d="M27,24.1,12.5,32.3a1.64,1.64,0,0,1-2,0l-.1.1.1.1a1.64,1.64,0,0,0,2,0Z" opacity="0.2" style="isolation:isolate"/><path d="M10.4,32.3a2,2,0,0,1-.4-1.4V31a2,2,0,0,0,.5,1.4v-.1Z" opacity="0.12" style="isolation:isolate"/><path d="M32,21.3l-5,2.8.1.1L32,21.3A1.44,1.44,0,0,0,33,20C33,20.5,32.6,20.9,32,21.3Z" opacity="0.12" style="isolation:isolate"/><path d="M12.5,7.6,32,18.7c.6.4,1,.8,1,1.3a1.66,1.66,0,0,0-1-1.4L12.5,7.5C11.1,6.7,10,7.4,10,9v.1C10,7.5,11.1,6.8,12.5,7.6Z" fill="#fff" opacity="0.25" style="isolation:isolate"/></svg>

<svg enable-background="new 0 0 135 40.5" viewBox="0 0 135 40.5" xmlns="http://www.w3.org/2000/svg" xmlns:xlink="http://www.w3.org/1999/xlink"><linearGradient id="a" gradientUnits="userSpaceOnUse" x1="21.77" x2="4.9876" y1="8.68" y2="25.4624"><stop offset="0" stop-color="#00a0ff"/><stop offset=".00657445" stop-color="#00a1ff"/><stop offset=".2601" stop-color="#00beff"/><stop offset=".5122" stop-color="#00d2ff"/><stop offset=".7604" stop-color="#00dfff"/><stop offset="1" stop-color="#00e3ff"/></linearGradient><linearGradient id="b" gradientUnits="userSpaceOnUse" x1="33.8344" x2="9.6375" y1="20.05" y2="20.05"><stop offset="0" stop-color="#ffe000"/><stop offset=".4087" stop-color="#ffbd00"/><stop offset=".7754" stop-color="#ffa500"/><stop offset="1" stop-color="#ff9c00"/></linearGradient><linearGradient id="c" gradientUnits="userSpaceOnUse" x1="24.8155" x2="2.0572" y1="22.2845" y2="45.0428"><stop offset="0" stop-color="#ff3a44"/><stop offset="1" stop-color="#c31162"/></linearGradient><linearGradient id="d" gradientUnits="userSpaceOnUse" x1="7.2617" x2="17.4243" y1=".2118" y2="10.3743"><stop offset="0" stop-color="#32a071"/><stop offset=".0685" stop-color="#2da771"/><stop offset=".4762" stop-color="#15cf74"/><stop offset=".8009" stop-color="#06e775"/><stop offset="1" stop-color="#00f076"/></linearGradient><path d="m130 40h-125c-2.8 0-5-2.2-5-5v-30c0-2.8 2.2-5 5-5h125c2.8 0 5 2.2 5 5v30c0 2.7-2.2 5-5 5z"/><path d="m130 .8c2.3 0 4.2 1.9 4.2 4.2v30c0 2.3-1.9 4.2-4.2 4.2h-125c-2.3 0-4.2-1.9-4.2-4.2v-30c0-2.3 1.9-4.2 4.2-4.2zm0-.8h-125c-2.8 0-5 2.2-5 5v30c0 2.8 2.2 5 5 5h125c2.8 0 5-2.2 5-5v-30c0-2.7-2.2-5-5-5z" fill="#a6a6a6"/><g fill="#fff"><path d="m47.4 10.2c0 .8-.2 1.5-.7 2-.6.6-1.3.9-2.2.9s-1.6-.3-2.2-.9-.9-1.3-.9-2.2.3-1.6.9-2.2 1.3-.9 2.2-.9c.4 0 .8.1 1.2.3s.7.4.9.7l-.5.5c-.4-.5-.9-.7-1.6-.7-.6 0-1.2.2-1.6.7-.5.4-.7 1-.7 1.7s.2 1.3.7 1.7 1 .7 1.6.7c.7 0 1.2-.2 1.7-.7.3-.3.5-.7.5-1.2h-2.2v-.7h2.9z" stroke="#fff" stroke-miterlimit="10" stroke-width=".2"/><path d="m52 7.7h-2.7v1.9h2.5v.7h-2.5v1.9h2.7v.8h-3.5v-6h3.5z" stroke="#fff" stroke-miterlimit="10" stroke-width=".2"/><path d="m55.3 13h-.8v-5.3h-1.7v-.7h4.2v.7h-1.7z" stroke="#fff" stroke-miterlimit="10" stroke-width=".2"/><path d="m59.9 13v-6h.8v6z" stroke="#fff" stroke-miterlimit="10" stroke-width=".2"/><path d="m64.1 13h-.8v-5.3h-1.7v-.7h4.1v.7h-1.7z" stroke="#fff" stroke-miterlimit="10" stroke-width=".2"/><path d="m73.6 12.2c-.6.6-1.3.9-2.2.9s-1.6-.3-2.2-.9-.9-1.3-.9-2.2.3-1.6.9-2.2 1.3-.9 2.2-.9 1.6.3 2.2.9.9 1.3.9 2.2-.3 1.6-.9 2.2zm-3.8-.5c.4.4 1 .7 1.6.7s1.2-.2 1.6-.7c.4-.4.7-1 .7-1.7s-.2-1.3-.7-1.7c-.4-.4-1-.7-1.6-.7s-1.2.2-1.6.7c-.4.4-.7 1-.7 1.7s.2 1.3.7 1.7z" stroke="#fff" stroke-miterlimit="10" stroke-width=".2"/><path d="m75.6 13v-6h.9l2.9 4.7v-1.2-3.5h.8v6h-.8l-3.1-4.9v1.2 3.7z" stroke="#fff" stroke-miterlimit="10" stroke-width=".2"/><path d="m68.1 21.8c-2.4 0-4.3 1.8-4.3 4.3 0 2.4 1.9 4.3 4.3 4.3s4.3-1.8 4.3-4.3c0-2.6-1.9-4.3-4.3-4.3zm0 6.8c-1.3 0-2.4-1.1-2.4-2.6s1.1-2.6 2.4-2.6 2.4 1 2.4 2.6c0 1.5-1.1 2.6-2.4 2.6zm-9.3-6.8c-2.4 0-4.3 1.8-4.3 4.3 0 2.4 1.9 4.3 4.3 4.3s4.3-1.8 4.3-4.3c0-2.6-1.9-4.3-4.3-4.3zm0 6.8c-1.3 0-2.4-1.1-2.4-2.6s1.1-2.6 2.4-2.6 2.4 1 2.4 2.6c0 1.5-1.1 2.6-2.4 2.6zm-11.1-5.5v1.8h4.3c-.1 1-.5 1.8-1 2.3-.6.6-1.6 1.3-3.3 1.3-2.7 0-4.7-2.1-4.7-4.8s2.1-4.8 4.7-4.8c1.4 0 2.5.6 3.3 1.3l1.3-1.3c-1.1-1-2.5-1.8-4.5-1.8-3.6 0-6.7 3-6.7 6.6s3.1 6.6 6.7 6.6c2 0 3.4-.6 4.6-1.9 1.2-1.2 1.6-2.9 1.6-4.2 0-.4 0-.8-.1-1.1zm45.4 1.4c-.4-1-1.4-2.7-3.6-2.7s-4 1.7-4 4.3c0 2.4 1.8 4.3 4.2 4.3 1.9 0 3.1-1.2 3.5-1.9l-1.4-1c-.5.7-1.1 1.2-2.1 1.2s-1.6-.4-2.1-1.3l5.7-2.4zm-5.8 1.4c0-1.6 1.3-2.5 2.2-2.5.7 0 1.4.4 1.6.9zm-4.7 4.1h1.9v-12.5h-1.9zm-3-7.3c-.5-.5-1.3-1-2.3-1-2.1 0-4.1 1.9-4.1 4.3s1.9 4.2 4.1 4.2c1 0 1.8-.5 2.2-1h.1v.6c0 1.6-.9 2.5-2.3 2.5-1.1 0-1.9-.8-2.1-1.5l-1.6.7c.5 1.1 1.7 2.5 3.8 2.5 2.2 0 4-1.3 4-4.4v-7.6h-1.8zm-2.2 5.9c-1.3 0-2.4-1.1-2.4-2.6s1.1-2.6 2.4-2.6 2.3 1.1 2.3 2.6-1 2.6-2.3 2.6zm24.4-11.1h-4.5v12.5h1.9v-4.7h2.6c2.1 0 4.1-1.5 4.1-3.9s-2-3.9-4.1-3.9zm.1 6h-2.7v-4.3h2.7c1.4 0 2.2 1.2 2.2 2.1-.1 1.1-.9 2.2-2.2 2.2zm11.5-1.8c-1.4 0-2.8.6-3.3 1.9l1.7.7c.4-.7 1-.9 1.7-.9 1 0 1.9.6 2 1.6v.1c-.3-.2-1.1-.5-1.9-.5-1.8 0-3.6 1-3.6 2.8 0 1.7 1.5 2.8 3.1 2.8 1.3 0 1.9-.6 2.4-1.2h.1v1h1.8v-4.8c-.2-2.2-1.9-3.5-4-3.5zm-.2 6.9c-.6 0-1.5-.3-1.5-1.1 0-1 1.1-1.3 2-1.3.8 0 1.2.2 1.7.4-.2 1.2-1.2 2-2.2 2zm10.5-6.6-2.1 5.4h-.1l-2.2-5.4h-2l3.3 7.6-1.9 4.2h1.9l5.1-11.8zm-16.8 8h1.9v-12.5h-1.9z"/></g><path d="m10.4 7.5c-.3.3-.5.8-.5 1.4v22.1c0 .6.2 1.1.5 1.4l.1.1 12.4-12.4v-.1-.1z" fill="url(#a)"/><path d="m27 24.3-4.1-4.1v-.2-.1l4.1-4.1.1.1 4.9 2.8c1.4.8 1.4 2.1 0 2.9z" fill="url(#b)"/><path d="m27.1 24.2-4.2-4.2-12.5 12.5c.5.5 1.2.5 2.1.1z" fill="url(#c)"/><path d="m27.1 15.8-14.6-8.3c-.9-.5-1.6-.4-2.1.1l12.5 12.4z" fill="url(#d)"/><path d="m27 24.1-14.5 8.2c-.8.5-1.5.4-2 0l-.1.1.1.1c.5.4 1.2.5 2 0z" opacity=".2"/><path d="m10.4 32.3c-.3-.3-.4-.8-.4-1.4v.1c0 .6.2 1.1.5 1.4v-.1z" opacity=".12"/><path d="m32 21.3-5 2.8.1.1 4.9-2.9c.7-.3 1-.8 1-1.3 0 .5-.4.9-1 1.3z" opacity=".12"/><path d="m12.5 7.6 19.5 11.1c.6.4 1 .8 1 1.3 0-.5-.3-1-1-1.4l-19.5-11.1c-1.4-.8-2.5-.1-2.5 1.5v.1c0-1.6 1.1-2.3 2.5-1.5z" fill="#fff" opacity=".25"/></svg>
